packages/katcn/src/icons/svg/strikethrough-solid.svg

<svg width="24" height="25" viewBox="0 0 24 25" fill="none" xmlns="http://www.w3.org/2000/svg">
<path d="M4.9 10.296H9C9.3 10.296 9.6 10.096 9.8 9.89602C10 9.59602 10.1 9.19602 9.9 8.89602C9.8 8.59602 9.7 8.19602 9.7 7.79602C9.7 6.89602 10.1 5.99602 10.7 5.29602C11.4 4.59602 12.2 4.29602 13.2 4.29602H16.9C17.5 4.29602 17.9 3.89602 17.9 3.29602C17.9 2.69602 17.5 2.29602 16.9 2.29602H13.2H9.1C7.7 2.29602 6.3 2.89602 5.2 3.89602C4.2 4.89602 3.6 6.29602 3.6 7.79602C3.6 8.49602 3.7 9.09602 3.9 9.69602C4.1 9.99602 4.5 10.296 4.9 10.296Z" fill="black"/>
<path d="M21 11.296H3C2.4 11.296 2 11.696 2 12.296C2 12.896 2.4 13.296 3 13.296H10C10.9 13.296 11.8 13.696 12.5 14.296C13.2 14.996 13.5 15.796 13.5 16.796C13.5 18.696 11.9 20.296 10 20.296H7.1H5.5C4.9 20.296 4.5 20.696 4.5 21.296C4.5 21.896 4.9 22.296 5.5 22.296H7.1H14.1C17.1 22.296 19.6 19.796 19.6 16.796C19.6 15.496 19.1 14.296 18.3 13.296H21C21.6 13.296 22 12.896 22 12.296C22 11.696 21.6 11.296 21 11.296Z" fill="black"/>
</svg>

<svg xmlns="http://www.w3.org/2000/svg" fill="none" viewBox="0 0 24 25"><path fill="#000" d="M4.9 10.296H9c.3 0 .6-.2.8-.4.2-.3.3-.7.1-1-.1-.3-.2-.7-.2-1.1 0-.9.4-1.8 1-2.5.7-.7 1.5-1 2.5-1h3.7c.6 0 1-.4 1-1s-.4-1-1-1H9.1c-1.4 0-2.8.6-3.9 1.6-1 1-1.6 2.4-1.6 3.9 0 .7.1 1.3.3 1.9.2.3.6.6 1 .6m16.1 1H3c-.6 0-1 .4-1 1s.4 1 1 1h7c.9 0 1.8.4 2.5 1 .7.7 1 1.5 1 2.5 0 1.9-1.6 3.5-3.5 3.5H5.5c-.6 0-1 .4-1 1s.4 1 1 1h8.6c3 0 5.5-2.5 5.5-5.5 0-1.3-.5-2.5-1.3-3.5H21c.6 0 1-.4 1-1s-.4-1-1-1"/></svg>
